X:929
T:Castle In The Glen, The
C:Joe Buchanan's Scottish Tome - Page 544.3
I:544 3
Z:Carl Allison
R:Waltz
L:1/4
M:3/4
K:G
B A G | B A G | e2 e | d2 G | B2 B | c B A | G3- | G3 |
g2 g | g a g | g3 | B2 B | d>e f | g f e | d3- | d3 |
B A G | B d | g3 | g2 B | d>e f | g>f e | d3- | d3 |
B A G | B A G | e2 e | d2 G | B2 B | c B A | G3- | G3 |]
